content/photos/nothings-gonna-change/images/IMG_0136.xmp
<x:xmpmeta xmlns:x="adobe:ns:meta/" x:xmptk="Adobe XMP Core 5.6-c140 79.160451, 2017/05/06-01:08:21        ">
 <rdf:RDF xmlns:rdf="http://www.w3.org/1999/02/22-rdf-syntax-ns#">
  <rdf:Description rdf:about=""
    xmlns:tiff="http://ns.adobe.com/tiff/1.0/"
    xmlns:exif="http://ns.adobe.com/exif/1.0/"
    xmlns:xmp="http://ns.adobe.com/xap/1.0/"
    xmlns:aux="http://ns.adobe.com/exif/1.0/aux/"
    xmlns:photoshop="http://ns.adobe.com/photoshop/1.0/"
    xmlns:xmpMM="http://ns.adobe.com/xap/1.0/mm/"
    xmlns:stEvt="http://ns.adobe.com/xap/1.0/sType/ResourceEvent#"
    xmlns:dc="http://purl.org/dc/elements/1.1/"
    xmlns:crs="http://ns.adobe.com/camera-raw-settings/1.0/"
   tiff:Make="NIKON CORPORATION"
   tiff:Model="NIKON D5000"
   tiff:Orientation="1"
   exif:ExifVersion="0231"
   exif:ExposureTime="1/30"
   exif:ShutterSpeedValue="4906891/1000000"
   exif:FNumber="22/1"
   exif:ApertureValue="8918863/1000000"
   exif:ExposureProgram="1"
   exif:ExposureBiasValue="2/6"
   exif:MaxApertureValue="36/10"
   exif:MeteringMode="3"
   exif:LightSource="0"
   exif:FocalLength="180/10"
   exif:SensingMethod="2"
   exif:FileSource="3"
   exif:SceneType="1"
   exif:FocalLengthIn35mmFilm="27"
   exif:CustomRendered="0"
   exif:ExposureMode="1"
   exif:WhiteBalance="0"
   exif:SceneCaptureType="0"
   exif:GainControl="2"
   exif:Contrast="0"
   exif:Saturation="0"
   exif:Sharpness="0"
   exif:SubjectDistanceRange="0"
   exif:DigitalZoomRatio="1/1"
   exif:DateTimeOriginal="2018-03-31T00:11:34.00+09:00"
   xmp:CreatorTool="Ver.1.00"
   xmp:ModifyDate="2018-03-31T00:11:34.000+09:00"
   xmp:CreateDate="2018-03-31T00:11:34.000+09:00"
   xmp:MetadataDate="2019-11-09T00:55:02+09:00"
   aux:SerialNumber="2193208"
   aux:LensInfo="180/10 550/10 35/10 56/10"
   aux:Lens="18.0-55.0 mm f/3.5-5.6"
   aux:LensID="154"
   aux:ImageNumber="6809"
   aux:ApproximateFocusDistance="60/100"
   photoshop:DateCreated="2018-03-31T00:11:34.000+09:00"
   photoshop:SidecarForExtension="NEF"
   photoshop:EmbeddedXMPDigest="00000000000000000000000000000000"
   xmpMM:DocumentID="720D66A0E2F3FD2370E9B7A069394744"
   xmpMM:OriginalDocumentID="720D66A0E2F3FD2370E9B7A069394744"
   xmpMM:InstanceID="xmp.iid:8201f5a2-1e64-47be-bb3f-3c2b9c690360"
   dc:format="image/x-nikon-nef"
   crs:Version="10.2"
   crs:ProcessVersion="10.0"
   crs:WhiteBalance="Custom"
   crs:Temperature="2000"
   crs:Tint="+13"
   crs:Sharpness="102"
   crs:LuminanceSmoothing="39"
   crs:ColorNoiseReduction="56"
   crs:VignetteAmount="0"
   crs:ShadowTint="0"
   crs:RedHue="0"
   crs:RedSaturation="0"
   crs:GreenHue="0"
   crs:GreenSaturation="0"
   crs:BlueHue="0"
   crs:BlueSaturation="0"
   crs:GrayMixerRed="-5"
   crs:GrayMixerOrange="-9"
   crs:GrayMixerYellow="-11"
   crs:GrayMixerGreen="-19"
   crs:GrayMixerAqua="-19"
   crs:GrayMixerBlue="+2"
   crs:GrayMixerPurple="+8"
   crs:GrayMixerMagenta="+2"
   crs:SplitToningShadowHue="0"
   crs:SplitToningShadowSaturation="0"
   crs:SplitToningHighlightHue="0"
   crs:SplitToningHighlightSaturation="0"
   crs:SplitToningBalance="0"
   crs:ParametricShadows="0"
   crs:ParametricDarks="0"
   crs:ParametricLights="0"
   crs:ParametricHighlights="0"
   crs:ParametricShadowSplit="25"
   crs:ParametricMidtoneSplit="50"
   crs:ParametricHighlightSplit="75"
   crs:SharpenRadius="+2.2"
   crs:SharpenDetail="14"
   crs:SharpenEdgeMasking="49"
   crs:PostCropVignetteAmount="0"
   crs:GrainAmount="0"
   crs:LuminanceNoiseReductionDetail="50"
   crs:ColorNoiseReductionDetail="8"
   crs:LuminanceNoiseReductionContrast="0"
   crs:ColorNoiseReductionSmoothness="84"
   crs:LensProfileEnable="1"
   crs:LensManualDistortionAmount="0"
   crs:PerspectiveVertical="0"
   crs:PerspectiveHorizontal="0"
   crs:PerspectiveRotate="0.0"
   crs:PerspectiveScale="100"
   crs:PerspectiveAspect="0"
   crs:PerspectiveUpright="0"
   crs:PerspectiveX="0.00"
   crs:PerspectiveY="0.00"
   crs:AutoLateralCA="1"
   crs:Exposure2012="+3.91"
   crs:Contrast2012="+46"
   crs:Highlights2012="+25"
   crs:Shadows2012="+6"
   crs:Whites2012="-100"
   crs:Blacks2012="-100"
   crs:Clarity2012="-100"
   crs:Dehaze="-100"
   crs:ConvertToGrayscale="True"
   crs:ToneCurveName="Medium Contrast"
   crs:ToneCurveName2012="Linear"
   crs:CameraProfile="Adobe Standard"
   crs:CameraProfileDigest="B7B8C440442EB398B6EDDACCED96AAB3"
   crs:LensProfileSetup="LensDefaults"
   crs:LensProfileName="Adobe (Nikon AF-S DX NIKKOR 18-55mm f/3.5-5.6G VR)"
   crs:LensProfileFilename="NIKON D90 (Nikon AF-S DX NIKKOR 18-55mm f3.5-5.6G VR) - RAW.lcp"
   crs:LensProfileDigest="5683EB2F3B50BED2C38F2F0557C1280F"
   crs:LensProfileDistortionScale="100"
   crs:LensProfileChromaticAberrationScale="100"
   crs:LensProfileVignettingScale="100"
   crs:UprightVersion="151388160"
   crs:UprightCenterMode="0"
   crs:UprightCenterNormX="0.5"
   crs:UprightCenterNormY="0.5"
   crs:UprightFocalMode="0"
   crs:UprightFocalLength35mm="35"
   crs:UprightPreview="False"
   crs:UprightTransformCount="6"
   crs:UprightFourSegmentsCount="0"
   crs:HasSettings="True"
   crs:HasCrop="False"
   crs:RawFileName="IMG_0136.NEF">
   <exif:Flash
    exif:Fired="False"
    exif:Return="0"
    exif:Mode="0"
    exif:Function="False"
    exif:RedEyeMode="False"/>
   <exif:ISOSpeedRatings>
    <rdf:Seq>
     <rdf:li>6400</rdf:li>
    </rdf:Seq>
   </exif:ISOSpeedRatings>
   <xmpMM:History>
    <rdf:Seq>
     <rdf:li
      stEvt:action="edited"
      stEvt:when="2018-03-30T15:20:11.548Z"/>
     <rdf:li
      stEvt:action="saved"
      stEvt:instanceID="xmp.iid:8201f5a2-1e64-47be-bb3f-3c2b9c690360"
      stEvt:when="2019-11-09T00:55:02+09:00"
      stEvt:softwareAgent="Adobe Lightroom 2.4.1 (Macintosh)"
      stEvt:changed="/metadata"/>
    </rdf:Seq>
   </xmpMM:History>
   <crs:ToneCurve>
    <rdf:Seq>
     <rdf:li>0, 0</rdf:li>
     <rdf:li>32, 22</rdf:li>
     <rdf:li>64, 56</rdf:li>
     <rdf:li>128, 128</rdf:li>
     <rdf:li>192, 196</rdf:li>
     <rdf:li>255, 255</rdf:li>
    </rdf:Seq>
   </crs:ToneCurve>
   <crs:ToneCurveRed>
    <rdf:Seq>
     <rdf:li>0, 0</rdf:li>
     <rdf:li>255, 255</rdf:li>
    </rdf:Seq>
   </crs:ToneCurveRed>
   <crs:ToneCurveGreen>
    <rdf:Seq>
     <rdf:li>0, 0</rdf:li>
     <rdf:li>255, 255</rdf:li>
    </rdf:Seq>
   </crs:ToneCurveGreen>
   <crs:ToneCurveBlue>
    <rdf:Seq>
     <rdf:li>0, 0</rdf:li>
     <rdf:li>255, 255</rdf:li>
    </rdf:Seq>
   </crs:ToneCurveBlue>
   <crs:ToneCurvePV2012>
    <rdf:Seq>
     <rdf:li>0, 0</rdf:li>
     <rdf:li>255, 255</rdf:li>
    </rdf:Seq>
   </crs:ToneCurvePV2012>
   <crs:ToneCurvePV2012Red>
    <rdf:Seq>
     <rdf:li>0, 0</rdf:li>
     <rdf:li>255, 255</rdf:li>
    </rdf:Seq>
   </crs:ToneCurvePV2012Red>
   <crs:ToneCurvePV2012Green>
    <rdf:Seq>
     <rdf:li>0, 0</rdf:li>
     <rdf:li>255, 255</rdf:li>
    </rdf:Seq>
   </crs:ToneCurvePV2012Green>
   <crs:ToneCurvePV2012Blue>
    <rdf:Seq>
     <rdf:li>0, 0</rdf:li>
     <rdf:li>255, 255</rdf:li>
    </rdf:Seq>
   </crs:ToneCurvePV2012Blue>
  </rdf:Description>
 </rdf:RDF>
</x:xmpmeta>
