photos/nothings-gonna-change/images/DSC00164.xmp
<x:xmpmeta xmlns:x="adobe:ns:meta/" x:xmptk="Adobe XMP Core 5.6-c140 79.160451, 2017/05/06-01:08:21        ">
 <rdf:RDF xmlns:rdf="http://www.w3.org/1999/02/22-rdf-syntax-ns#">
  <rdf:Description rdf:about=""
    xmlns:xmp="http://ns.adobe.com/xap/1.0/"
    xmlns:tiff="http://ns.adobe.com/tiff/1.0/"
    xmlns:exif="http://ns.adobe.com/exif/1.0/"
    xmlns:aux="http://ns.adobe.com/exif/1.0/aux/"
    xmlns:exifEX="http://cipa.jp/exif/1.0/"
    xmlns:photoshop="http://ns.adobe.com/photoshop/1.0/"
    xmlns:dc="http://purl.org/dc/elements/1.1/"
    xmlns:crs="http://ns.adobe.com/camera-raw-settings/1.0/"
    xmlns:xmpMM="http://ns.adobe.com/xap/1.0/mm/"
    xmlns:stEvt="http://ns.adobe.com/xap/1.0/sType/ResourceEvent#"
   xmp:CreatorTool="ILCE-7M3 v1.00"
   xmp:ModifyDate="2018-04-20T22:50:34"
   xmp:CreateDate="2018-04-20T22:50:34"
   xmp:MetadataDate="2019-11-09T01:00:14+09:00"
   tiff:Make="SONY"
   tiff:Model="ILCE-7M3"
   tiff:Orientation="1"
   exif:ExifVersion="0231"
   exif:ExposureTime="1/60"
   exif:ShutterSpeedValue="5906891/1000000"
   exif:FNumber="4/1"
   exif:ApertureValue="4/1"
   exif:ExposureProgram="2"
   exif:SensitivityType="2"
   exif:RecommendedExposureIndex="12800"
   exif:BrightnessValue="-5756/2560"
   exif:ExposureBiasValue="0/1"
   exif:MaxApertureValue="926/256"
   exif:MeteringMode="5"
   exif:LightSource="0"
   exif:FocalLength="290/10"
   exif:FileSource="3"
   exif:SceneType="1"
   exif:FocalLengthIn35mmFilm="29"
   exif:CustomRendered="0"
   exif:ExposureMode="0"
   exif:WhiteBalance="0"
   exif:SceneCaptureType="0"
   exif:Contrast="0"
   exif:Saturation="0"
   exif:Sharpness="0"
   exif:DigitalZoomRatio="16/16"
   exif:FocalPlaneXResolution="54965632/32768"
   exif:FocalPlaneYResolution="54965632/32768"
   exif:FocalPlaneResolutionUnit="3"
   exif:GPSStatus="V"
   exif:GPSMapDatum="WGS-84"
   exif:GPSDifferential="0"
   exif:DateTimeOriginal="2018-04-20T22:50:34"
   aux:LensInfo="280/10 700/10 35/10 56/10"
   aux:Lens="FE 28-70mm F3.5-5.6 OSS"
   aux:LensDistortInfo="33268/32768 -61899100/1073741824 29077944/1073741824 -5283615/1073741824"
   exifEX:LensModel="FE 28-70mm F3.5-5.6 OSS"
   photoshop:DateCreated="2018-04-20T22:50:34"
   photoshop:SidecarForExtension="ARW"
   photoshop:EmbeddedXMPDigest="4900BC77CB0DBCA80610989F7ACC9AF8"
   dc:format="image/x-sony-arw"
   crs:Version="10.3"
   crs:ProcessVersion="10.0"
   crs:WhiteBalance="Custom"
   crs:Temperature="9657"
   crs:Tint="+19"
   crs:Saturation="-69"
   crs:Sharpness="46"
   crs:LuminanceSmoothing="39"
   crs:ColorNoiseReduction="25"
   crs:VignetteAmount="0"
   crs:ShadowTint="0"
   crs:RedHue="0"
   crs:RedSaturation="0"
   crs:GreenHue="0"
   crs:GreenSaturation="0"
   crs:BlueHue="0"
   crs:BlueSaturation="0"
   crs:Vibrance="-74"
   crs:HueAdjustmentRed="0"
   crs:HueAdjustmentOrange="0"
   crs:HueAdjustmentYellow="0"
   crs:HueAdjustmentGreen="0"
   crs:HueAdjustmentAqua="0"
   crs:HueAdjustmentBlue="0"
   crs:HueAdjustmentPurple="0"
   crs:HueAdjustmentMagenta="0"
   crs:SaturationAdjustmentRed="0"
   crs:SaturationAdjustmentOrange="0"
   crs:SaturationAdjustmentYellow="0"
   crs:SaturationAdjustmentGreen="0"
   crs:SaturationAdjustmentAqua="0"
   crs:SaturationAdjustmentBlue="0"
   crs:SaturationAdjustmentPurple="0"
   crs:SaturationAdjustmentMagenta="0"
   crs:LuminanceAdjustmentRed="0"
   crs:LuminanceAdjustmentOrange="0"
   crs:LuminanceAdjustmentYellow="0"
   crs:LuminanceAdjustmentGreen="0"
   crs:LuminanceAdjustmentAqua="0"
   crs:LuminanceAdjustmentBlue="0"
   crs:LuminanceAdjustmentPurple="0"
   crs:LuminanceAdjustmentMagenta="0"
   crs:SplitToningShadowHue="0"
   crs:SplitToningShadowSaturation="0"
   crs:SplitToningHighlightHue="0"
   crs:SplitToningHighlightSaturation="0"
   crs:SplitToningBalance="0"
   crs:ParametricShadows="0"
   crs:ParametricDarks="0"
   crs:ParametricLights="0"
   crs:ParametricHighlights="0"
   crs:ParametricShadowSplit="25"
   crs:ParametricMidtoneSplit="50"
   crs:ParametricHighlightSplit="75"
   crs:SharpenRadius="+1.0"
   crs:SharpenDetail="25"
   crs:SharpenEdgeMasking="0"
   crs:PostCropVignetteAmount="-21"
   crs:PostCropVignetteMidpoint="50"
   crs:PostCropVignetteFeather="50"
   crs:PostCropVignetteRoundness="0"
   crs:PostCropVignetteStyle="1"
   crs:PostCropVignetteHighlightContrast="0"
   crs:GrainAmount="21"
   crs:GrainSize="25"
   crs:GrainFrequency="50"
   crs:LuminanceNoiseReductionDetail="50"
   crs:ColorNoiseReductionDetail="50"
   crs:LuminanceNoiseReductionContrast="0"
   crs:ColorNoiseReductionSmoothness="50"
   crs:LensProfileEnable="1"
   crs:LensManualDistortionAmount="0"
   crs:PerspectiveVertical="0"
   crs:PerspectiveHorizontal="0"
   crs:PerspectiveRotate="0.0"
   crs:PerspectiveScale="100"
   crs:PerspectiveAspect="0"
   crs:PerspectiveUpright="0"
   crs:PerspectiveX="0.00"
   crs:PerspectiveY="0.00"
   crs:AutoLateralCA="0"
   crs:Exposure2012="-5.00"
   crs:Contrast2012="-100"
   crs:Highlights2012="-100"
   crs:Shadows2012="-100"
   crs:Whites2012="-100"
   crs:Blacks2012="+23"
   crs:Clarity2012="+84"
   crs:DefringePurpleAmount="0"
   crs:DefringePurpleHueLo="30"
   crs:DefringePurpleHueHi="70"
   crs:DefringeGreenAmount="0"
   crs:DefringeGreenHueLo="40"
   crs:DefringeGreenHueHi="60"
   crs:Dehaze="-21"
   crs:ToneMapStrength="0"
   crs:ConvertToGrayscale="False"
   crs:OverrideLookVignette="False"
   crs:ToneCurveName="Medium Contrast"
   crs:ToneCurveName2012="Custom"
   crs:CameraProfile="Adobe Standard"
   crs:CameraProfileDigest="8231747EC38F3123A793D07144E134B4"
   crs:LensProfileSetup="Custom"
   crs:LensProfileName="Adobe (Sony FE 28-70mm F3.5-5.6 OSS)"
   crs:LensProfileFilename="SONY (Sony FE 28-70mm F3.5-5.6 OSS) - RAW.lcp"
   crs:LensProfileDigest="E5C0D9DF0F03371FEE30960119949F22"
   crs:LensProfileDistortionScale="197"
   crs:LensProfileChromaticAberrationScale="100"
   crs:LensProfileVignettingScale="35"
   crs:UprightVersion="151388160"
   crs:UprightCenterMode="0"
   crs:UprightCenterNormX="0.5"
   crs:UprightCenterNormY="0.5"
   crs:UprightFocalMode="0"
   crs:UprightFocalLength35mm="35"
   crs:UprightPreview="False"
   crs:UprightTransformCount="6"
   crs:UprightFourSegmentsCount="0"
   crs:GrainSeed="3277930087"
   crs:ToggleStyleDigest="A4C5CE8158DEBC0C93554C8223E715A6"
   crs:ToggleStyleAmount="1"
   crs:HasSettings="True"
   crs:CropTop="0.238653"
   crs:CropLeft="0.059544"
   crs:CropBottom="0.906473"
   crs:CropRight="0.943209"
   crs:CropAngle="-1.121717"
   crs:CropConstrainToWarp="0"
   crs:HasCrop="True"
   crs:AlreadyApplied="False"
   crs:RawFileName="DSC00164.ARW"
   xmpMM:InstanceID="xmp.iid:4cd923ca-9e4f-4212-aa07-27143accfd1c"
   xmpMM:DocumentID="xmp.did:4cd923ca-9e4f-4212-aa07-27143accfd1c"
   xmpMM:OriginalDocumentID="xmp.did:4cd923ca-9e4f-4212-aa07-27143accfd1c">
   <exif:Flash
    exif:Fired="False"
    exif:Return="0"
    exif:Mode="2"
    exif:Function="False"
    exif:RedEyeMode="False"/>
   <exif:ISOSpeedRatings>
    <rdf:Seq>
     <rdf:li>12800</rdf:li>
    </rdf:Seq>
   </exif:ISOSpeedRatings>
   <crs:ToneCurve>
    <rdf:Seq>
     <rdf:li>0, 0</rdf:li>
     <rdf:li>32, 22</rdf:li>
     <rdf:li>64, 56</rdf:li>
     <rdf:li>128, 128</rdf:li>
     <rdf:li>192, 196</rdf:li>
     <rdf:li>255, 255</rdf:li>
    </rdf:Seq>
   </crs:ToneCurve>
   <crs:ToneCurveRed>
    <rdf:Seq>
     <rdf:li>0, 0</rdf:li>
     <rdf:li>255, 255</rdf:li>
    </rdf:Seq>
   </crs:ToneCurveRed>
   <crs:ToneCurveGreen>
    <rdf:Seq>
     <rdf:li>0, 0</rdf:li>
     <rdf:li>255, 255</rdf:li>
    </rdf:Seq>
   </crs:ToneCurveGreen>
   <crs:ToneCurveBlue>
    <rdf:Seq>
     <rdf:li>0, 0</rdf:li>
     <rdf:li>255, 255</rdf:li>
    </rdf:Seq>
   </crs:ToneCurveBlue>
   <crs:ToneCurvePV2012>
    <rdf:Seq>
     <rdf:li>0, 0</rdf:li>
     <rdf:li>33, 60</rdf:li>
     <rdf:li>116, 95</rdf:li>
     <rdf:li>128, 117</rdf:li>
     <rdf:li>140, 118</rdf:li>
     <rdf:li>154, 108</rdf:li>
     <rdf:li>185, 151</rdf:li>
     <rdf:li>210, 236</rdf:li>
     <rdf:li>255, 255</rdf:li>
    </rdf:Seq>
   </crs:ToneCurvePV2012>
   <crs:ToneCurvePV2012Red>
    <rdf:Seq>
     <rdf:li>0, 0</rdf:li>
     <rdf:li>255, 255</rdf:li>
    </rdf:Seq>
   </crs:ToneCurvePV2012Red>
   <crs:ToneCurvePV2012Green>
    <rdf:Seq>
     <rdf:li>0, 0</rdf:li>
     <rdf:li>255, 255</rdf:li>
    </rdf:Seq>
   </crs:ToneCurvePV2012Green>
   <crs:ToneCurvePV2012Blue>
    <rdf:Seq>
     <rdf:li>0, 0</rdf:li>
     <rdf:li>255, 255</rdf:li>
    </rdf:Seq>
   </crs:ToneCurvePV2012Blue>
   <crs:Look>
    <rdf:Description
     crs:Name="Adobe Color"
     crs:Amount="1.000000"
     crs:UUID="B952C231111CD8E0ECCF14B86BAA7077"
     crs:SupportsAmount="false"
     crs:SupportsMonochrome="false"
     crs:SupportsOutputReferred="false">
    <crs:Group>
     <rdf:Alt>
      <rdf:li xml:lang="x-default">Profiles</rdf:li>
     </rdf:Alt>
    </crs:Group>
    <crs:Parameters>
     <rdf:Description
      crs:Version="10.3"
      crs:ProcessVersion="10.0"
      crs:ConvertToGrayscale="False"
      crs:CameraProfile="Adobe Standard"
      crs:LookTable="E1095149FDB39D7A057BAB208837E2E1">
     <crs:ToneCurvePV2012>
      <rdf:Seq>
       <rdf:li>0, 0</rdf:li>
       <rdf:li>22, 16</rdf:li>
       <rdf:li>40, 35</rdf:li>
       <rdf:li>127, 127</rdf:li>
       <rdf:li>224, 230</rdf:li>
       <rdf:li>240, 246</rdf:li>
       <rdf:li>255, 255</rdf:li>
      </rdf:Seq>
     </crs:ToneCurvePV2012>
     <crs:ToneCurvePV2012Red>
      <rdf:Seq>
       <rdf:li>0, 0</rdf:li>
       <rdf:li>255, 255</rdf:li>
      </rdf:Seq>
     </crs:ToneCurvePV2012Red>
     <crs:ToneCurvePV2012Green>
      <rdf:Seq>
       <rdf:li>0, 0</rdf:li>
       <rdf:li>255, 255</rdf:li>
      </rdf:Seq>
     </crs:ToneCurvePV2012Green>
     <crs:ToneCurvePV2012Blue>
      <rdf:Seq>
       <rdf:li>0, 0</rdf:li>
       <rdf:li>255, 255</rdf:li>
      </rdf:Seq>
     </crs:ToneCurvePV2012Blue>
     </rdf:Description>
    </crs:Parameters>
    </rdf:Description>
   </crs:Look>
   <xmpMM:History>
    <rdf:Seq>
     <rdf:li
      stEvt:action="edited"
      stEvt:when="2018-04-20T14:21:03Z"/>
     <rdf:li
      stEvt:action="saved"
      stEvt:instanceID="xmp.iid:4cd923ca-9e4f-4212-aa07-27143accfd1c"
      stEvt:when="2019-11-09T01:00:14+09:00"
      stEvt:softwareAgent="Adobe Lightroom 2.4.1 (Macintosh)"
      stEvt:changed="/metadata"/>
    </rdf:Seq>
   </xmpMM:History>
  </rdf:Description>
 </rdf:RDF>
</x:xmpmeta>
